svg/alphanum/k-square.svg

<svg width="448" height="512" viewBox="0 0 448 512" version="1.1" xmlns="http://www.w3.org/2000/svg"><path fill="currentColor" d="M400,480l-352,0c-26.51,0 -48,-21.49 -48,-48l0,-352c0,-26.51 21.49,-48 48,-48l352,0c26.51,0 48,21.49 48,48l0,352c0,26.51 -21.49,48 -48,48Zm-240,-352l-32,0c-8.837,0 -16,7.163 -16,16l0,224c0,8.837 7.163,16 16,16l32,0c8.837,0 16,-7.163 16,-16l0,-80.054l4.427,0c4.889,0 8.765,0.787 11.629,2.359c2.864,1.572 6.042,4.502 9.534,8.79l70.41,75.905c0.227,0.215 0.521,0.539 0.884,0.938c2.301,2.527 7.342,8.062 15.116,8.062l36.266,0c7.683,0 11.594,-2.287 11.734,-6.861c0,-5.43 -1,-9.139 -7.963,-16.796l-96.037,-104.343l96.037,-104.343c6.963,-7.657 7.963,-11.366 7.963,-16.796c-0.14,-4.574 -4.051,-6.861 -11.734,-6.861l-36.266,0c-7.774,0 -12.814,5.535 -15.115,8.062c-0.363,0.399 -0.658,0.723 -0.885,0.938l-70.41,75.905c-3.492,4.288 -6.67,7.218 -9.534,8.79c-2.864,1.572 -6.74,2.359 -11.629,2.359l-4.427,0l0,-80.054c0,-8.837 -7.163,-16 -16,-16Z"></path></svg>

<svg width="448" height="512" viewBox="0 0 448 512" fill="none" xmlns="http://www.w3.org/2000/svg">
<path fill-rule="evenodd" clip-rule="evenodd" d="M48 32C21.4903 32 0 53.4903 0 80V432C0 458.51 21.4903 480 48 480H400C426.51 480 448 458.51 448 432V80C448 53.4903 426.51 32 400 32H48ZM128 128C119.163 128 112 135.163 112 144V368C112 376.837 119.163 384 128 384H160C168.837 384 176 376.837 176 368V287.946H180.427C185.316 287.946 189.192 288.733 192.056 290.305C194.92 291.877 198.098 294.807 201.59 299.095L272 375C272.227 375.215 272.521 375.539 272.884 375.938C275.185 378.465 280.226 384 288 384H324.266C331.949 384 335.86 381.713 336 377.139C336 371.709 335 368 328.037 360.343L232 256L328.037 151.657C335 144 336 140.291 336 134.861C335.86 130.287 331.949 128 324.266 128H288C280.226 128 275.186 133.535 272.885 136.062C272.522 136.461 272.227 136.785 272 137L201.59 212.905C198.098 217.193 194.92 220.123 192.056 221.695C189.192 223.267 185.316 224.054 180.427 224.054H176V144C176 135.163 168.837 128 160 128H128Z" fill="black"/>
</svg>
